X: 42352
T: Welcome Home Grainne
R: jig
M: 6/8
K: Amixolydian
|:eAA cBA|eAA f^ga|eAA c2 e|dBG Bcd|
eAA cBA|ed=c B2 A|GBd gfe|dBG Bcd:|
|:cBA a^ga|ecA Bcd|cBA gfg|dBG Bcd|
cBA agf|gfe ~f3|dfa gfe|dBG Bcd:|

